X:328
T:A trip to Pakistan
R:Reel
S:IrTrad; Juergen Gier, 3/97
D:The Bees'Knees
S:1 oneila~1.abc
Z:1 Transcription:? :chords:Mike Long
S:2 George
Z:Transcription, minor arr.,chords:Mike Long
M:C|
L:1/8
K:G
"Em"EGBE "G"~G3B|"D"~A3G FGAF|"Em"EGBE "G"~G3B|"D"AGFA "Em"BEED:|\
|:"Em"EGBE "C"c3d|"G"BBBG "D"AGFG|
"Em"EGBE "C"~c3d|"G"BAGB "D"A4:|\
|:"Bm"FGBF GBFG|"Em"EFGE FGEF|"D"DFAD FADF|"D"AGFG "Em"E2z2:|
P:Arr. 2
K:D
"Bm"BdfB d2df|"A"eeed cdec|"Bm"BdfB "D"d2df|"A"edcd "Bm"B2 a2:|\
|:"Bm"BdfB "G"g2ge|"D"f2fa "A"fefd|
"Bm"BdfB "G"g2ge|"D"fedf "A"e2 a2:|\
|:"F#m"cdfc dfcd|"Bm"BcdB cdBc|"A"AceA ceAc|"A"edcd "Bm"B2 a2:|
